!! 00000] ST[
!!!OTL: Yang-Guan San Tie (Abschied der Freunde am Yang-Guan
!!!ARE: Asia, China
!!!YOR: schriftlich
!!!SCT: C0001
!!!YEM: Copyright 1995, estate of Helmut Schaffrath.
**kern
*ICvox
*Ivox
*M2/4
*k[f#c#g#]
*A:
=1
{4.A
8B
=2
4d
4e
=3
2e}
=4
{4.B
8d
=5
4.f#
8e
=6
4d
4e
=7
2e}
=8
{4a
8b
8dd
=9
2a
=10
4f#
8a
8b
=11
4f#
8f#
8e
=12
4d
8e
8f#
=13
2A}
=14
{4.d
8B
=15
4B
4B
=16
4A
4B
=17
2B}
=18
{4.B
8d
=19
4.f#
8e
=20
4d
4e
=21
2e}
=22
{4.e
8d
=23
4B
4d
=24
2d}
=25
{4B
[4b
=26
2b]
=27
4B
[4b
=28
2b]}
=29
{4.b
8a
=30
4b
8a
8b
=31
2f#
=32
2f#}
=33
{4.e
8d
=34
4B
4d
=35
2d
=36
2d}
=37
{[2f#
=38
4f#]
4d
=39
2e}
=40
{[2f#
=41
4f#]
4d
=42
2e}
=43
{2f#
=44
4d
4e}
=45
{2B
=46
4A
[4B
=47
2B]
=48
2B
=49
4A
[4B
=50
2B]}
=51
{4.b
8dd
=52
4ee
4dd
=53
4ff#
4ee
=54
2ee}
=55
{4aa
8bb
8ddd
=56
2aa
=57
4ff#
8aa
8bb
=58
4.ff#
8ee
=59
4d
4e
=60
2ee}
=61
{4f#
4dd
=62
8ee
8ff#
4dd
=63
4b
8dd
8ee
=64
4.b
8a
=65
4A
8a
8b
=66
2A}
=67
{4.dd
8ee
=68
4ff#
4aa
=69
8aa
4ff#
8ee
=70
4d
4e
=71
2ee}
=72
{4.e
8d
=73
4B
4d
=74
2d}
=75
{4B
[4b
=76
2b]
=77
4B
[4b
=78
2b]}
=79
{4.b
8a
=80
4b
8a
8b
=81
2f#
=82
2f#}
=83
{2a
=84
4b
4dd
=85
2b
=86
4a
4d
=87
8b
8dd
4b
=88
4a
4f#
=89
4.f#
8e
=90
2d
=91
2d}
=92
{4f#
4f#
=93
4f#
4e
=94
4e
4e}
=95
{4d
4d
=96
4B
4B
=97
4d
4d
=98
4e
4e
=99
4f#
4f#
=100
2a}
=101
{4.f#
8e
=102
4e
4e
=103
4f#
4e
=104
8f#
8e
8f#
8e
=105
[2e
=106
2e]}
=107
!! something funny happended to the data here.
{[2f#
=108
4f#]
4d
=109
[2e
=110
2e]
=111
[2f#
=112
4f#]
4d
=113
[2e
=114
2e]}
=115
!! something funny happened in the translation here.
{2f#
=116
2a
=117
[2f#
=118
4f#]
4d
=119
[2e
=120
2e]}
=121
{[2B
=122
4B]
4A
=123
[2B
=124
2B]
=125
[2B
=126
4B]
4A
=127
[2B
=128
2B]}
=129
{4.ff#
8ee
=130
4b
4b
=131
4.b
8dd
=132
4ee
4dd
=133
4ff#
4ee
=134
2ee
=135
4ff#
4f#
=136
2ff#
=137
[2e
=138
2e]}
==
!!!AGN: Kunstmusik fÅr Guqin
!! Transkription nach Reinhard. Muss noch verbessert werden!!!! +++++
!!    Die Notation sollte im Ba·schlÅssel erfolgen.
!!!AMT: simple duple
!!!AIN: vox
!!!EED: Helmut Schaffrath
!!!EEV: 1.0
*-
